X:52
T:score143
L:1/16
Q:1/4=96
M:4/4
I:linebreak $
K:Bb
 z2 d2 g2g2 gbc'd' | a2a2 abc'd' g2g2 gbc'd' |$ _g2d2 z2d2 =g2g2 gbc'd' | %3
 a2a2 abc'd' g2g2 gbc'd' |$ _g2d2 z2a2 bd'b=g bd'bg | efg2 gab2 ac'af ac'af |$ %6
 def2 fga2 gbge gbge | cde2 edc2 dfb2- bfb2- |$ bfb2- bfb2- b2ag fedc | dfbB c4 B4 z4 |] %10
